build/Karasa-Jaga/scalable/actions/go-down-symbolic.svg

<svg height="16" width="16" xmlns="http://www.w3.org/2000/svg"><path d="m13.748047 7.1972661-5.7480473 7.8749999c-.0052-.0014-.010406-.0027-.015625-.0039l-5.7324215-7.8593849 1.05664-1.0566406 2.337891 2.3378906c.5917054.5916105 1.6033244 2.1726719 1.6035155 1.3359413v-8.89843819h1.4902344v8.92578189c.0001876.8367329 1.0118089-.7443254 1.6035159-1.3359375l2.349609-2.3496094z" fill="#bebebe"/></svg>

<?xml version="1.0" encoding="UTF-8" standalone="no"?>
<!-- Created with Inkscape (http://www.inkscape.org/) -->

<svg
   xmlns:dc="http://purl.org/dc/elements/1.1/"
   xmlns:cc="http://creativecommons.org/ns#"
   xmlns:rdf="http://www.w3.org/1999/02/22-rdf-syntax-ns#"
   xmlns:svg="http://www.w3.org/2000/svg"
   xmlns="http://www.w3.org/2000/svg"
   xmlns:sodipodi="http://sodipodi.sourceforge.net/DTD/sodipodi-0.dtd"
   xmlns:inkscape="http://www.inkscape.org/namespaces/inkscape"
   width="16px"
   height="16px"
   id="svg13294"
   version="1.1"
   inkscape:version="0.92.2 (unknown)"
   sodipodi:docname="go-down-symbolic.svg">
  <defs
     id="defs13296" />
  <sodipodi:namedview
     id="base"
     pagecolor="#ffffff"
     bordercolor="#666666"
     borderopacity="1.0"
     inkscape:pageopacity="0.0"
     inkscape:pageshadow="2"
     inkscape:zoom="16"
     inkscape:cx="2.4692807"
     inkscape:cy="7.2323592"
     inkscape:current-layer="layer1"
     showgrid="true"
     inkscape:grid-bbox="true"
     inkscape:document-units="px"
     inkscape:window-width="1366"
     inkscape:window-height="697"
     inkscape:window-x="0"
     inkscape:window-y="0"
     inkscape:window-maximized="1" />
  <metadata
     id="metadata13299">
    <rdf:RDF>
      <cc:Work
         rdf:about="">
        <dc:format>image/svg+xml</dc:format>
        <dc:type
           rdf:resource="http://purl.org/dc/dcmitype/StillImage" />
        <dc:title></dc:title>
      </cc:Work>
    </rdf:RDF>
  </metadata>
  <g
     id="layer1"
     inkscape:label="Layer 1"
     inkscape:groupmode="layer">
    <path
       style="color:#000000;display:inline;overflow:visible;visibility:visible;fill:#bebebe;fill-opacity:1;fill-rule:nonzero;stroke:none;stroke-width:1;marker:none;enable-background:accumulate"
       d="M 13.748047,7.1972661 7.9999997,15.072266 c -0.0052,-0.0014 -0.010406,-0.0027 -0.015625,-0.0039 L 2.2519532,7.2089811 3.3085932,6.1523405 5.6464842,8.4902311 C 6.2381896,9.0818416 7.2498086,10.662903 7.2499997,9.8261724 V 0.92773421 H 8.7402341 V 9.8535161 C 8.7404217,10.690249 9.752043,9.1091907 10.34375,8.5175786 l 2.349609,-2.3496094 z"
       id="path29297"
       inkscape:connector-curvature="0"
       sodipodi:nodetypes="ccccccccccccc" />
  </g>
</svg>
